X:1
T:Title
%%score 1 2
L:1/8
Q:1/4=100
M:4/4
K:F
V:1 treble nm="Choir Aahs, SOPRANO ALTO"
V:2 bass nm="Choir Aahs, TENOR BASS"
V:1
 [Fc]3 [Fc] [Fd][Fc][FA][CF] | [DF]4 [B,D]4 | C3 [CF] [CA][CF][Fc][FA] | [EG]6 z2 | %4
w: Joseph~M.~Scriven * * * * *||||
 [Fc]3 [Fc] [Fd][Fc][FA][CF] | [DF]4 [B,D]4 | [A,C]3 [CF] [FA][CG][CF][CE] | [CF]6 z2 | %8
w: ||||
 [EG]3 [_E^F] [=EG][=FA][GB][EG] | [FA]4 [Fc]4 | [Fd]3 [Fd] [Fc][FA][GB][FA] | [EG]6 z2 | %12
w: ||||
 [Fc]3 [Fc] [Fd][Fc][FA][CF] | [DF]4 [B,D]4 | [A,C]3 [CF] [FA][CG][CF][CE] | [CF]6 z2 |] %16
w: ||||
V:2
 [F,A,]3 [F,A,] [F,B,][F,A,][F,C][F,A,] | [B,,B,]4 [B,,F,]4 | %2
w: 1.~What~ a~ friend~ we~ have~ in~|Je sus,~|
 [F,A,]3 [F,A,] [F,A,][F,A,][F,A,][F,C] | [C,C]6 z2 | [F,A,]3 [F,A,] [F,B,][F,A,][F,C][F,A,] | %5
w: all~ our~ sins~ and~ griefs~ to~|bear!~|What~ a~ pri vi lege~ to~|
 [B,,B,]4 [B,,F,]4 | [C,F,]3 [C,A,] [C,C][C,B,][C,A,][C,G,] | [F,A,]6 z2 | %8
w: car ry~|eve ry thing~ to~ God~ in~|prayer!~|
 [C,C]3 [C,C] [C,C][C,C][C,C][C,C] | [F,C]4 [F,A,]4 | B,3 .B, [A,C][F,C][E,C][F,C] | [C,C]6 z2 | %12
w: Oh,~ what~ peace~ we~ of ten~|for feit,~|oh,~ what~ need less~ pain~ we~|bear,~|
 [F,A,]3 [F,A,] [F,B,][F,A,][F,C][F,A,] | [B,,B,]4 [B,,F,]4 | %14
w: all~ be cause~ we~ do~ not~|car ry~|
 [C,F,]3 [C,A,] [C,C][C,B,][C,A,][C,G,] | [F,A,]6 z2 |] %16
w: eve ry thing~ to~ God~ in~|prayer!~|

